SVG_Azure_All/Service Bus Topic.svg

<?xml version="1.0" encoding="UTF-8" standalone="no"?>
<!-- Generated by Microsoft Visio, SVG Export Service Bus Topic.svg Page-1 -->

<svg
   xmlns:dc="http://purl.org/dc/elements/1.1/"
   xmlns:cc="http://creativecommons.org/ns#"
   xmlns:rdf="http://www.w3.org/1999/02/22-rdf-syntax-ns#"
   xmlns:svg="http://www.w3.org/2000/svg"
   xmlns="http://www.w3.org/2000/svg"
   xmlns:xlink="http://www.w3.org/1999/xlink"
   xmlns:sodipodi="http://sodipodi.sourceforge.net/DTD/sodipodi-0.dtd"
   xmlns:inkscape="http://www.inkscape.org/namespaces/inkscape"
   width="0.78753227in"
   height="0.70868081in"
   viewBox="0 0 56.702214 51.025002"
   xml:space="preserve"
   class="st13"
   version="1.1"
   id="svg153"
   sodipodi:docname="Service Bus Topic.svg"
   style="font-size:12px;overflow:visible;color-interpolation-filters:sRGB;fill:none;fill-rule:evenodd;stroke-linecap:square;stroke-miterlimit:3"
   inkscape:version="0.92.5 (2060ec1f9f, 2020-04-08)"><metadata
   id="metadata157"><rdf:RDF><cc:Work
       rdf:about=""><dc:format>image/svg+xml</dc:format><dc:type
         rdf:resource="http://purl.org/dc/dcmitype/StillImage" /></cc:Work></rdf:RDF></metadata><sodipodi:namedview
   pagecolor="#ffffff"
   bordercolor="#666666"
   borderopacity="1"
   objecttolerance="10"
   gridtolerance="10"
   guidetolerance="10"
   inkscape:pageopacity="0"
   inkscape:pageshadow="2"
   inkscape:window-width="640"
   inkscape:window-height="480"
   id="namedview155"
   showgrid="false"
   inkscape:zoom="1.4869072"
   inkscape:cx="37.79867"
   inkscape:cy="34.006413"
   inkscape:window-x="0"
   inkscape:window-y="0"
   inkscape:window-maximized="0"
   inkscape:current-layer="svg153" />
	<style
   type="text/css"
   id="style2">
	<![CDATA[
		.st1 {fill:#50e6ff;stroke:none;stroke-linecap:butt;stroke-width:28.2406}
		.st2 {fill:#32bedd;stroke:none;stroke-linecap:butt;stroke-width:28.2406}
		.st3 {fill:#198ab3;stroke:none;stroke-linecap:butt;stroke-width:28.2406}
		.st4 {fill:url(#grad0-12);stroke:none;stroke-linecap:butt;stroke-width:28.2406}
		.st5 {fill:#999999;stroke:none;stroke-linecap:butt;stroke-width:34}
		.st6 {fill:#999999;fill-opacity:0.5;stroke:none;stroke-linecap:butt;stroke-width:34}
		.st7 {fill:#949494;stroke:none;stroke-linecap:butt;stroke-width:34}
		.st8 {fill:#50e6ff;stroke:none;stroke-linecap:butt;stroke-width:15.3533}
		.st9 {fill:#32bedd;stroke:none;stroke-linecap:butt;stroke-width:15.3533}
		.st10 {fill:#198ab3;stroke:none;stroke-linecap:butt;stroke-width:15.3533}
		.st11 {fill:url(#grad0-12);stroke:none;stroke-linecap:butt;stroke-width:15.3533}
		.st12 {fill:#b8d432;stroke:none;stroke-linecap:butt;stroke-width:10.3953}
		.st13 {fill:none;fill-rule:evenodd;font-size:12px;overflow:visible;stroke-linecap:square;stroke-miterlimit:3}
	]]>
	</style>

	<defs
   id="Patterns_And_Gradients">
		<linearGradient
   id="grad0-12"
   x1="0"
   y1="0"
   x2="1"
   y2="0"
   gradientTransform="rotate(90,0.5,0.5)">
			<stop
   offset="0"
   stop-color="#005ba1"
   stop-opacity="1"
   id="stop4" />
			<stop
   offset="0.26"
   stop-color="#00589d"
   stop-opacity="1"
   id="stop6" />
			<stop
   offset="0.53"
   stop-color="#004f90"
   stop-opacity="1"
   id="stop8" />
			<stop
   offset="0.8"
   stop-color="#003f7c"
   stop-opacity="1"
   id="stop10" />
			<stop
   offset="1"
   stop-color="#003067"
   stop-opacity="1"
   id="stop12" />
		</linearGradient>
	<linearGradient
   inkscape:collect="always"
   xlink:href="#grad0-12"
   id="linearGradient4667"
   gradientTransform="scale(1.7295604,0.57818159)"
   x1="0"
   y1="191.84284"
   x2="14.044031"
   y2="191.84284"
   gradientUnits="userSpaceOnUse" /><linearGradient
   inkscape:collect="always"
   xlink:href="#grad0-12"
   id="linearGradient4669"
   gradientTransform="scale(1.7307411,0.57778716)"
   x1="0"
   y1="198.39486"
   x2="7.6325684"
   y2="198.39486"
   gradientUnits="userSpaceOnUse" /><linearGradient
   inkscape:collect="always"
   xlink:href="#grad0-12"
   id="linearGradient4671"
   gradientTransform="scale(1.7307411,0.57778716)"
   x1="0"
   y1="198.39486"
   x2="7.6325684"
   y2="198.39486"
   gradientUnits="userSpaceOnUse" /></defs>
	<g
   id="g151"
   transform="translate(-34.000106,-33.9993)">
		<title
   id="title16">Page-1</title>
		<g
   id="group1610-1"
   transform="translate(34.0052,-34.0157)">
			<title
   id="title18">Service Bus Topic</title>
			<g
   id="group1611-2">
				<title
   id="title20">Icon-integration-214</title>
				<g
   id="shape1612-3"
   transform="translate(0.0347618,-17.2009)">
					<title
   id="title22">path4</title>
					<path
   d="m 24.32,102.8 h -0.03 v -0.05 h -0.05 l -12.5,0.01 -11.68,-0.01 H 0 v 16.29 H 24.29 V 102.8 Z"
   class="st1"
   id="path24"
   inkscape:connector-curvature="0"
   style="fill:#50e6ff;stroke:none;stroke-width:28.24060059;stroke-linecap:butt" />
				</g>
				<g
   id="shape1613-5"
   transform="translate(0.0347618,-17.2009)">
					<title
   id="title27">path6</title>
					<path
   d="m 0,102.8 v 16.24 l 12.16,-8.12 z"
   class="st2"
   id="path29"
   inkscape:connector-curvature="0"
   style="fill:#32bedd;stroke:none;stroke-width:28.24060059;stroke-linecap:butt" />
				</g>
				<g
   id="shape1614-7"
   transform="translate(12.1949,-17.2009)">
					<title
   id="title32">path8</title>
					<path
   d="M 12.13,102.8 0,110.92 l 12.13,8.12 z"
   class="st3"
   id="path34"
   inkscape:connector-curvature="0"
   style="fill:#198ab3;stroke:none;stroke-width:28.24060059;stroke-linecap:butt" />
				</g>
				<g
   id="shape1615-9"
   transform="translate(0.0347618,-17.2013)">
					<title
   id="title37">path10</title>
					<path
   d="M 12.13,110.92 0,119.01 v 0.03 h 24.29 v -0.03 z"
   class="st4"
   id="path39"
   inkscape:connector-curvature="0"
   style="fill:url(#linearGradient4667);stroke:none;stroke-width:28.24060059;stroke-linecap:butt" />
				</g>
				<g
   id="group1616-13"
   transform="translate(0,-38.015)">
					<title
   id="title42">g16</title>
					<g
   id="shape1617-14">
						<title
   id="title44">path12</title>
						<path
   d="m 1.9,106.03 h 4.3 v 12.03 a 0.967114,0.977335 0 0 1 -0.967114,0.97733 L 0.97,119.04 A 0.967114,0.977335 0 0 1 0.002886,118.06267 L 0,107.95 a 1.90088,1.92097 0 0 1 1.9,-1.92 z"
   class="st5"
   id="path46"
   inkscape:connector-curvature="0"
   style="fill:#999999;stroke:none;stroke-width:34;stroke-linecap:butt" />
					</g>
					<g
   id="shape1618-16">
						<title
   id="title49">path14</title>
						<path
   d="m 1.9,106.03 h 4.3 v 12.03 a 0.967114,0.977335 0 0 1 -0.967114,0.97733 L 0.97,119.04 A 0.967114,0.977335 0 0 1 0.002886,118.06267 L 0,107.95 a 1.90088,1.92097 0 0 1 1.9,-1.92 z"
   class="st6"
   id="path51"
   inkscape:connector-curvature="0"
   style="fill:#999999;fill-opacity:0.5;stroke:none;stroke-width:34;stroke-linecap:butt" />
					</g>
				</g>
				<g
   id="group1619-18"
   transform="translate(50.49,-38.015)">
					<title
   id="title55">g22</title>
					<g
   id="shape1620-19">
						<title
   id="title57">path18</title>
						<path
   d="m 0,106.03 h 4.3 a 1.90088,1.92097 0 0 1 1.9,1.92 v 10.11 a 0.967114,0.977335 0 0 1 -0.967114,0.97733 L 0.93,119.04 a 0.967114,0.977335 0 0 1 -0.933766,-0.97733 z"
   class="st5"
   id="path59"
   inkscape:connector-curvature="0"
   style="fill:#999999;stroke:none;stroke-width:34;stroke-linecap:butt" />
					</g>
					<g
   id="shape1621-21">
						<title
   id="title62">path20</title>
						<path
   d="m 0,106.03 h 4.3 a 1.90088,1.92097 0 0 1 1.9,1.92 v 10.11 a 0.967114,0.977335 0 0 1 -0.967114,0.97733 L 0.93,119.04 a 0.967114,0.977335 0 0 1 -0.933766,-0.97733 z"
   class="st6"
   id="path64"
   inkscape:connector-curvature="0"
   style="fill:#999999;fill-opacity:0.5;stroke:none;stroke-width:34;stroke-linecap:butt" />
					</g>
				</g>
				<g
   id="shape1622-23"
   transform="translate(0,-44.89)">
					<title
   id="title68">path24</title>
					<path
   d="m 56.69,114.83 v 4.21 H 0 v -4.21 a 1.90088,1.92097 0 0 1 1.9,-1.92 h 52.93 a 1.90088,1.92097 0 0 1 1.86,1.92 z"
   class="st7"
   id="path70"
   inkscape:connector-curvature="0"
   style="fill:#949494;stroke:none;stroke-width:34;stroke-linecap:butt" />
				</g>
				<g
   id="group1623-25">
					<title
   id="title73">g30</title>
					<g
   id="shape1624-26">
						<title
   id="title75">path26</title>
						<path
   d="m 0.97,105.93 h 4.3 a 0.967114,0.977335 0 0 1 0.967114,0.97734 L 6.24,119.04 H 1.9 A 1.90088,1.92097 0 0 1 0,117.12 v -10.11 a 0.967114,0.977335 0 0 1 0.967114,-1.07844 z"
   class="st5"
   id="path77"
   inkscape:connector-curvature="0"
   style="fill:#999999;stroke:none;stroke-width:34;stroke-linecap:butt" />
					</g>
					<g
   id="shape1625-28">
						<title
   id="title80">path28</title>
						<path
   d="m 0.97,105.93 h 4.3 a 0.967114,0.977335 0 0 1 0.967114,0.97734 L 6.24,119.04 H 1.9 A 1.90088,1.92097 0 0 1 0,117.12 v -10.11 a 0.967114,0.977335 0 0 1 0.967114,-1.07844 z"
   class="st6"
   id="path82"
   inkscape:connector-curvature="0"
   style="fill:#999999;fill-opacity:0.5;stroke:none;stroke-width:34;stroke-linecap:butt" />
					</g>
				</g>
				<g
   id="group1626-30"
   transform="translate(50.49,-0.101104)">
					<title
   id="title86">g36</title>
					<g
   id="shape1627-31">
						<title
   id="title88">path32</title>
						<path
   d="m 0.93,106.03 h 4.31 a 0.967114,0.977335 0 0 1 0.967114,0.97733 L 6.2,117.12 a 1.90088,1.92097 0 0 1 -1.9,1.92 H 0 v -11.93 a 0.967114,0.977335 0 0 1 0.933766,-1.07844 z"
   class="st5"
   id="path90"
   inkscape:connector-curvature="0"
   style="fill:#999999;stroke:none;stroke-width:34;stroke-linecap:butt" />
					</g>
					<g
   id="shape1628-33">
						<title
   id="title93">path34</title>
						<path
   d="m 0.93,106.03 h 4.31 a 0.967114,0.977335 0 0 1 0.967114,0.97733 L 6.2,117.12 a 1.90088,1.92097 0 0 1 -1.9,1.92 H 0 v -11.93 a 0.967114,0.977335 0 0 1 0.933766,-1.07844 z"
   class="st6"
   id="path95"
   inkscape:connector-curvature="0"
   style="fill:#999999;fill-opacity:0.5;stroke:none;stroke-width:34;stroke-linecap:butt" />
					</g>
				</g>
				<g
   id="shape1629-35">
					<title
   id="title99">path38</title>
					<path
   d="m 0,117.12 v -4.21 h 56.69 v 4.21 a 1.90088,1.92097 0 0 1 -1.9,1.92 H 1.9 A 1.90088,1.92097 0 0 1 0,117.12 Z"
   class="st7"
   id="path101"
   inkscape:connector-curvature="0"
   style="fill:#949494;stroke:none;stroke-width:34;stroke-linecap:butt" />
				</g>
				<g
   id="shape1630-37"
   transform="translate(34.7449,-30.3368)">
					<title
   id="title104">path4-9</title>
					<path
   d="m 13.22,110.21 h -0.01 v -0.03 h -0.03 l -6.8,0.01 -6.35,-0.01 H 0 v 8.86 h 13.21 v -8.83 z"
   class="st8"
   id="path106"
   inkscape:connector-curvature="0"
   style="fill:#50e6ff;stroke:none;stroke-width:15.35330009;stroke-linecap:butt" />
				</g>
				<g
   id="shape1631-39"
   transform="translate(34.7449,-30.3368)">
					<title
   id="title109">path6-0</title>
					<path
   d="m 0,110.21 v 8.83 l 6.61,-4.41 z"
   class="st9"
   id="path111"
   inkscape:connector-curvature="0"
   style="fill:#32bedd;stroke:none;stroke-width:15.35330009;stroke-linecap:butt" />
				</g>
				<g
   id="shape1632-41"
   transform="translate(41.3559,-30.3368)">
					<title
   id="title114">path8-3</title>
					<path
   d="m 6.6,110.21 -6.6,4.42 6.6,4.41 z"
   class="st10"
   id="path116"
   inkscape:connector-curvature="0"
   style="fill:#198ab3;stroke:none;stroke-width:15.35330009;stroke-linecap:butt" />
				</g>
				<g
   id="shape1633-43"
   transform="translate(34.7449,-30.3369)">
					<title
   id="title119">path10-6</title>
					<path
   d="M 6.6,114.63 0,119.02 v 0.02 h 13.21 v -0.02 z"
   class="st11"
   id="path121"
   inkscape:connector-curvature="0"
   style="fill:url(#linearGradient4669);stroke:none;stroke-width:15.35330009;stroke-linecap:butt" />
				</g>
				<g
   id="shape1634-46"
   transform="translate(24.3898,-14.8143)">
					<title
   id="title124">path6-8</title>
					<path
   d="m 0,106.5 2.2,-2.23 1.63,1.65 -2.2,2.22 z m 3.19,-3.23 2.2,-2.22 1.63,1.64 -2.2,2.23 z m 4.82,-1.59 -1.63,-1.63 2.18,-2.21 1.64,1.64 z m -1.63,15.15 1.63,-1.65 2.19,2.21 -1.64,1.65 z m -0.99,-1.01 -2.2,-2.22 1.63,-1.64 2.21,2.22 z M 2.2,112.6 0,110.37 l 1.63,-1.64 2.19,2.22 z"
   class="st12"
   id="path126"
   inkscape:connector-curvature="0"
   style="fill:#b8d432;stroke:none;stroke-width:10.39529991;stroke-linecap:butt" />
				</g>
				<g
   id="shape1635-48"
   transform="translate(34.7075,-11.9581)">
					<title
   id="title129">path4-9-1</title>
					<path
   d="m 13.22,110.21 h -0.01 v -0.03 h -0.03 l -6.8,0.01 -6.35,-0.01 H 0 v 8.86 h 13.21 v -8.83 z"
   class="st8"
   id="path131"
   inkscape:connector-curvature="0"
   style="fill:#50e6ff;stroke:none;stroke-width:15.35330009;stroke-linecap:butt" />
				</g>
				<g
   id="shape1636-50"
   transform="translate(34.7076,-11.9582)">
					<title
   id="title134">path6-0-9</title>
					<path
   d="m 0,110.21 v 8.83 l 6.61,-4.41 z"
   class="st9"
   id="path136"
   inkscape:connector-curvature="0"
   style="fill:#32bedd;stroke:none;stroke-width:15.35330009;stroke-linecap:butt" />
				</g>
				<g
   id="shape1637-52"
   transform="translate(41.3186,-11.9582)">
					<title
   id="title139">path8-3-6</title>
					<path
   d="m 6.6,110.21 -6.6,4.42 6.6,4.41 z"
   class="st10"
   id="path141"
   inkscape:connector-curvature="0"
   style="fill:#198ab3;stroke:none;stroke-width:15.35330009;stroke-linecap:butt" />
				</g>
				<g
   id="shape1638-54"
   transform="translate(34.7076,-11.9583)">
					<title
   id="title144">path10-6-9</title>
					<path
   d="M 6.6,114.63 0,119.02 v 0.02 h 13.21 v -0.02 z"
   class="st11"
   id="path146"
   inkscape:connector-curvature="0"
   style="fill:url(#linearGradient4671);stroke:none;stroke-width:15.35330009;stroke-linecap:butt" />
				</g>
			</g>
		</g>
	</g>
</svg>

<?xml version="1.0" encoding="UTF-8" standalone="no"?>
<!DOCTYPE svg PUBLIC "-//W3C//DTD SVG 1.1//EN" "http://www.w3.org/Graphics/SVG/1.1/DTD/svg11.dtd">
<!-- Generated by Microsoft Visio, SVG Export Service Bus Topic.svg Page-1 -->
<svg xmlns="http://www.w3.org/2000/svg" xmlns:xlink="http://www.w3.org/1999/xlink" xmlns:ev="http://www.w3.org/2001/xml-events"
		width="1.73192in" height="1.65332in" viewBox="0 0 124.698 119.039" xml:space="preserve" color-interpolation-filters="sRGB"
		class="st13">
	<style type="text/css">
	<![CDATA[
		.st1 {fill:#50e6ff;stroke:none;stroke-linecap:butt;stroke-width:28.2406}
		.st2 {fill:#32bedd;stroke:none;stroke-linecap:butt;stroke-width:28.2406}
		.st3 {fill:#198ab3;stroke:none;stroke-linecap:butt;stroke-width:28.2406}
		.st4 {fill:url(#grad0-12);stroke:none;stroke-linecap:butt;stroke-width:28.2406}
		.st5 {fill:#999999;stroke:none;stroke-linecap:butt;stroke-width:34}
		.st6 {fill:#999999;fill-opacity:0.5;stroke:none;stroke-linecap:butt;stroke-width:34}
		.st7 {fill:#949494;stroke:none;stroke-linecap:butt;stroke-width:34}
		.st8 {fill:#50e6ff;stroke:none;stroke-linecap:butt;stroke-width:15.3533}
		.st9 {fill:#32bedd;stroke:none;stroke-linecap:butt;stroke-width:15.3533}
		.st10 {fill:#198ab3;stroke:none;stroke-linecap:butt;stroke-width:15.3533}
		.st11 {fill:url(#grad0-12);stroke:none;stroke-linecap:butt;stroke-width:15.3533}
		.st12 {fill:#b8d432;stroke:none;stroke-linecap:butt;stroke-width:10.3953}
		.st13 {fill:none;fill-rule:evenodd;font-size:12px;overflow:visible;stroke-linecap:square;stroke-miterlimit:3}
	]]>
	</style>

	<defs id="Patterns_And_Gradients">
		<linearGradient id="grad0-12" x1="0" y1="0" x2="1" y2="0" gradientTransform="rotate(90 0.5 0.5)">
			<stop offset="0" stop-color="#005ba1" stop-opacity="1"/>
			<stop offset="0.26" stop-color="#00589d" stop-opacity="1"/>
			<stop offset="0.53" stop-color="#004f90" stop-opacity="1"/>
			<stop offset="0.8" stop-color="#003f7c" stop-opacity="1"/>
			<stop offset="1" stop-color="#003067" stop-opacity="1"/>
		</linearGradient>
	</defs>
	<g>
		<title>Page-1</title>
		<g id="group1595-1" transform="translate(34.0052,-34.0157)">
			<title>Service Bus Topic</title>
			<g id="group1596-2">
				<title>Icon-integration-214</title>
				<g id="shape1597-3" transform="translate(0.0347618,-17.2009)">
					<title>path4</title>
					<path d="M24.32 102.8 L24.29 102.8 L24.29 102.75 L24.24 102.75 L11.74 102.76 L0.06 102.75 L0 102.75 L0 119.04
								 L24.29 119.04 L24.29 102.8 L24.32 102.8 Z" class="st1"/>
				</g>
				<g id="shape1598-5" transform="translate(0.0347618,-17.2009)">
					<title>path6</title>
					<path d="M0 102.8 L0 119.04 L12.16 110.92 L0 102.8 Z" class="st2"/>
				</g>
				<g id="shape1599-7" transform="translate(12.1949,-17.2009)">
					<title>path8</title>
					<path d="M12.13 102.8 L0 110.92 L12.13 119.04 L12.13 102.8 Z" class="st3"/>
				</g>
				<g id="shape1600-9" transform="translate(0.0347618,-17.2013)">
					<title>path10</title>
					<path d="M12.13 110.92 L0 119.01 L0 119.04 L24.29 119.04 L24.29 119.01 L12.13 110.92 Z" class="st4"/>
				</g>
				<g id="group1601-13" transform="translate(5.64548E-14,-38.015)">
					<title>g16</title>
					<g id="shape1602-14">
						<title>path12</title>
						<path d="M1.9 106.03 L6.2 106.03 L6.2 118.06 a0.967114 0.977335 0 0 1 -0.967114 0.977335 L0.97 119.04 a0.967114
									 0.977335 0 0 1 -0.967114 -0.977335 L0 107.95 A1.90088 1.92097 0 0 1 1.9 106.03 Z" class="st5"/>
					</g>
					<g id="shape1603-16">
						<title>path14</title>
						<path d="M1.9 106.03 L6.2 106.03 L6.2 118.06 a0.967114 0.977335 0 0 1 -0.967114 0.977335 L0.97 119.04 a0.967114
									 0.977335 0 0 1 -0.967114 -0.977335 L0 107.95 A1.90088 1.92097 0 0 1 1.9 106.03 Z" class="st6"/>
					</g>
				</g>
				<g id="group1604-18" transform="translate(50.49,-38.015)">
					<title>g22</title>
					<g id="shape1605-19">
						<title>path18</title>
						<path d="M0 106.03 L4.3 106.03 A1.90088 1.92097 0 0 1 6.2 107.95 L6.2 118.06 a0.967114 0.977335 0 0 1 -0.967114
									 0.977335 L0.93 119.04 a0.967114 0.977335 0 0 1 -0.933766 -0.977335 L0 106.03 Z" class="st5"/>
					</g>
					<g id="shape1606-21">
						<title>path20</title>
						<path d="M0 106.03 L4.3 106.03 A1.90088 1.92097 0 0 1 6.2 107.95 L6.2 118.06 a0.967114 0.977335 0 0 1 -0.967114
									 0.977335 L0.93 119.04 a0.967114 0.977335 0 0 1 -0.933766 -0.977335 L0 106.03 Z" class="st6"/>
					</g>
				</g>
				<g id="shape1607-23" transform="translate(0,-44.89)">
					<title>path24</title>
					<path d="M56.69 114.83 L56.69 119.04 L0 119.04 L0 114.83 A1.90088 1.92097 0 0 1 1.9 112.91 L54.83 112.91 A1.90088
								 1.92097 0 0 1 56.69 114.83 Z" class="st7"/>
				</g>
				<g id="group1608-25">
					<title>g30</title>
					<g id="shape1609-26">
						<title>path26</title>
						<path d="M0.97 105.93 L5.27 105.93 a0.967114 0.977335 0 0 1 0.967114 0.977335 L6.24 119.04 L1.9 119.04 A1.90088
									 1.92097 0 0 1 0 117.12 L0 107.01 a0.967114 0.977335 0 0 1 0.967114 -1.07844 Z" class="st5"/>
					</g>
					<g id="shape1610-28">
						<title>path28</title>
						<path d="M0.97 105.93 L5.27 105.93 a0.967114 0.977335 0 0 1 0.967114 0.977335 L6.24 119.04 L1.9 119.04 A1.90088
									 1.92097 0 0 1 0 117.12 L0 107.01 a0.967114 0.977335 0 0 1 0.967114 -1.07844 Z" class="st6"/>
					</g>
				</g>
				<g id="group1611-30" transform="translate(50.49,-0.101104)">
					<title>g36</title>
					<g id="shape1612-31">
						<title>path32</title>
						<path d="M0.93 106.03 L5.24 106.03 a0.967114 0.977335 0 0 1 0.967114 0.977335 L6.2 117.12 A1.90088 1.92097
									 0 0 1 4.3 119.04 L0 119.04 L0 107.11 a0.967114 0.977335 0 0 1 0.933766 -1.07844 Z" class="st5"/>
					</g>
					<g id="shape1613-33">
						<title>path34</title>
						<path d="M0.93 106.03 L5.24 106.03 a0.967114 0.977335 0 0 1 0.967114 0.977335 L6.2 117.12 A1.90088 1.92097
									 0 0 1 4.3 119.04 L0 119.04 L0 107.11 a0.967114 0.977335 0 0 1 0.933766 -1.07844 Z" class="st6"/>
					</g>
				</g>
				<g id="shape1614-35">
					<title>path38</title>
					<path d="M0 117.12 L0 112.91 L56.69 112.91 L56.69 117.12 A1.90088 1.92097 0 0 1 54.79 119.04 L1.9 119.04 A1.90088
								 1.92097 0 0 1 0 117.12 Z" class="st7"/>
				</g>
				<g id="shape1615-37" transform="translate(34.7449,-30.3368)">
					<title>path4-9</title>
					<path d="M13.22 110.21 L13.21 110.21 L13.21 110.18 L13.18 110.18 L6.38 110.19 L0.03 110.18 L0 110.18 L0 119.04
								 L13.21 119.04 L13.21 110.21 L13.22 110.21 Z" class="st8"/>
				</g>
				<g id="shape1616-39" transform="translate(34.7449,-30.3368)">
					<title>path6-0</title>
					<path d="M0 110.21 L0 119.04 L6.61 114.63 L0 110.21 Z" class="st9"/>
				</g>
				<g id="shape1617-41" transform="translate(41.3559,-30.3368)">
					<title>path8-3</title>
					<path d="M6.6 110.21 L0 114.63 L6.6 119.04 L6.6 110.21 Z" class="st10"/>
				</g>
				<g id="shape1618-43" transform="translate(34.7449,-30.3369)">
					<title>path10-6</title>
					<path d="M6.6 114.63 L0 119.02 L0 119.04 L13.21 119.04 L13.21 119.02 L6.6 114.63 Z" class="st11"/>
				</g>
				<g id="shape1619-46" transform="translate(24.3898,-14.8143)">
					<title>path6-8</title>
					<path d="M0 106.5 L2.2 104.27 L3.83 105.92 L1.63 108.14 L0 106.5 ZM3.19 103.27 L5.39 101.05 L7.02 102.69 L4.82
								 104.92 L3.19 103.27 ZM8.01 101.68 L6.38 100.05 L8.56 97.84 L10.2 99.48 L8.01 101.68 ZM6.38 116.83
								 L8.01 115.18 L10.2 117.39 L8.56 119.04 L6.38 116.83 ZM5.39 115.82 L3.19 113.6 L4.82 111.96 L7.03
								 114.18 L5.39 115.82 ZM2.2 112.6 L0 110.37 L1.63 108.73 L3.82 110.95 L2.2 112.6 Z" class="st12"/>
				</g>
				<g id="shape1620-48" transform="translate(34.7075,-11.9581)">
					<title>path4-9-1</title>
					<path d="M13.22 110.21 L13.21 110.21 L13.21 110.18 L13.18 110.18 L6.38 110.19 L0.03 110.18 L0 110.18 L0 119.04
								 L13.21 119.04 L13.21 110.21 L13.22 110.21 Z" class="st8"/>
				</g>
				<g id="shape1621-50" transform="translate(34.7076,-11.9582)">
					<title>path6-0-9</title>
					<path d="M0 110.21 L0 119.04 L6.61 114.63 L0 110.21 Z" class="st9"/>
				</g>
				<g id="shape1622-52" transform="translate(41.3186,-11.9582)">
					<title>path8-3-6</title>
					<path d="M6.6 110.21 L0 114.63 L6.6 119.04 L6.6 110.21 Z" class="st10"/>
				</g>
				<g id="shape1623-54" transform="translate(34.7076,-11.9583)">
					<title>path10-6-9</title>
					<path d="M6.6 114.63 L0 119.02 L0 119.04 L13.21 119.04 L13.21 119.02 L6.6 114.63 Z" class="st11"/>
				</g>
			</g>
		</g>
	</g>
</svg>
